public/service-5.svg

<svg width="64" height="66" viewBox="0 0 64 66" fill="none" xmlns="http://www.w3.org/2000/svg">
<g filter="url(#filter0_d_72_78)">
<path d="M29 9.19995C31.2635 9.22627 33.4253 10.1439 35.0166 11.7539C36.6078 13.3639 37.5002 15.5363 37.5 17.8V31.7C37.5 32.8162 37.2801 33.9215 36.853 34.9528C36.4258 35.984 35.7997 36.9211 35.0104 37.7104C34.2211 38.4997 33.2841 39.1258 32.2528 39.5529C31.2215 39.9801 30.1162 40.2 29 40.2C26.7457 40.2 24.5837 39.3044 22.9896 37.7104C21.3955 36.1163 20.5 33.9543 20.5 31.7V17.8C20.4998 15.5363 21.3922 13.3639 22.9834 11.7539C24.5747 10.1439 26.7365 9.22627 29 9.19995Z" fill="white"/>
<path d="M28.4996 10.2C27.1459 10.2072 25.8136 10.5377 24.6134 11.1639C23.4132 11.79 22.38 12.6938 21.5996 13.8C23.0249 12.7663 24.739 12.2066 26.4996 12.2C31.1996 12.2 33.9996 16.1 33.9996 20.8V34.7C34.0215 36.4651 33.4589 38.1879 32.3996 39.5999C34.5996 38.0999 36.9996 35.6 36.9996 32.7V18.8C36.9998 16.5363 36.1074 14.3639 34.5162 12.7539C32.9249 11.1439 30.7631 10.2263 28.4996 10.2Z" fill="#DEE0E2"/>
<path d="M42.3002 29.3V32.5C42.274 36.0193 40.8644 39.3871 38.3758 41.8757C35.8872 44.3642 32.5195 45.7739 29.0002 45.8M29.0002 45.8C25.4809 45.7739 22.1132 44.3642 19.6246 41.8757C17.136 39.3871 15.7264 36.0193 15.7002 32.5V29.3M29.0002 45.8V56.3M18.1002 56.8H39.9002" stroke="#4D535B" stroke-width="2" stroke-miterlimit="10"/>
<path d="M20.9 17.5H25.7M20.9 22.3H25.7M20.9 27.2H25.7M20.9 32H25.7M32.3 17.5H37.1M32.3 22.3H37.1M32.3 27.2H37.1M32.3 32H37.1M29 9.19995C31.2635 9.22627 33.4253 10.1439 35.0166 11.7539C36.6078 13.3639 37.5002 15.5363 37.5 17.8V31.7C37.5 32.8162 37.2801 33.9215 36.853 34.9528C36.4258 35.984 35.7997 36.9211 35.0104 37.7104C34.2211 38.4997 33.2841 39.1258 32.2528 39.5529C31.2215 39.9801 30.1162 40.2 29 40.2C26.7457 40.2 24.5837 39.3044 22.9896 37.7104C21.3955 36.1163 20.5 33.9543 20.5 31.7V17.8C20.4998 15.5363 21.3922 13.3639 22.9834 11.7539C24.5747 10.1439 26.7365 9.22627 29 9.19995ZM47.8 17.9C48.1434 17.7724 48.5122 17.7288 48.8758 17.7726C49.2395 17.8164 49.5874 17.9464 49.8906 18.1519C50.1939 18.3573 50.4437 18.6322 50.6192 18.9536C50.7948 19.2751 50.8911 19.6338 50.9 20C50.843 20.8334 50.5056 21.6231 49.9428 22.2404C49.3799 22.8577 48.6247 23.2664 47.8 23.4C46.1 23.7 44.7 22.8 44.7 21.2C44.7784 20.3843 45.1253 19.6177 45.6863 19.0204C46.2474 18.4232 46.9908 18.0291 47.8 17.9Z" stroke="#4D535B" stroke-width="2" stroke-miterlimit="10"/>
<path d="M50.7998 10.5L58.0998 13.1V8.6L50.7998 6V20.7" stroke="#4D535B" stroke-width="2" stroke-miterlimit="10"/>
<g style="mix-blend-mode:darken">
<path d="M47.8002 17.9C48.1436 17.7725 48.5124 17.7288 48.876 17.7726C49.2397 17.8165 49.5876 17.9465 49.8908 18.1519C50.1941 18.3573 50.4439 18.6322 50.6194 18.9537C50.795 19.2751 50.8913 19.6338 50.9002 20C50.8432 20.8335 50.5058 21.6231 49.943 22.2405C49.3801 22.8578 48.6249 23.2665 47.8002 23.4C46.1002 23.7 44.7002 22.8 44.7002 21.2C44.7785 20.3843 45.1255 19.6177 45.6865 19.0205C46.2476 18.4232 46.991 18.0291 47.8002 17.9ZM50.7002 10.5L58.0002 13.1V8.6L50.7002 6" fill="#8AD0FF"/>
</g>
</g>
<defs>
<filter id="filter0_d_72_78" x="-4" y="0" width="72" height="72" filterUnits="userSpaceOnUse" color-interpolation-filters="sRGB">
<feFlood flood-opacity="0" result="BackgroundImageFix"/>
<feColorMatrix in="SourceAlpha" type="matrix" values="0 0 0 0 0 0 0 0 0 0 0 0 0 0 0 0 0 0 127 0" result="hardAlpha"/>
<feOffset dy="4"/>
<feGaussianBlur stdDeviation="2"/>
<feComposite in2="hardAlpha" operator="out"/>
<feColorMatrix type="matrix" values="0 0 0 0 0 0 0 0 0 0 0 0 0 0 0 0 0 0 0.25 0"/>
<feBlend mode="normal" in2="BackgroundImageFix" result="effect1_dropShadow_72_78"/>
<feBlend mode="normal" in="SourceGraphic" in2="effect1_dropShadow_72_78" result="shape"/>
</filter>
</defs>
</svg>

<svg xmlns="http://www.w3.org/2000/svg" viewBox="0 0 64 64"><defs><style>.cls-4{fill:none;stroke:#4d535b;stroke-miterlimit:10;stroke-width:2px}</style></defs><g style="isolation:isolate"><g id="white"><path d="M29 9.2a8.6 8.6 0 018.5 8.6v13.9a8.5 8.5 0 01-8.5 8.5 8.5 8.5 0 01-8.5-8.5V17.8A8.6 8.6 0 0129 9.2z" fill="#fff"/><path d="M28.5 10.2a8.5 8.5 0 00-6.9 3.6 8.4 8.4 0 014.9-1.6c4.7 0 7.5 3.9 7.5 8.6v13.9a8 8 0 01-1.6 4.9c2.2-1.5 4.6-4 4.6-6.9V18.8a8.6 8.6 0 00-8.5-8.6z" fill="#dee0e2"/></g><g id="stroke"><path class="cls-4" d="M42.3 29.3v3.2A13.4 13.4 0 0129 45.8a13.4 13.4 0 01-13.3-13.3v-3.2M29 45.8v10.5m-10.9.5h21.8"/><path class="cls-4" d="M29 9.2a8.6 8.6 0 018.5 8.6v13.9a8.5 8.5 0 01-8.5 8.5 8.5 8.5 0 01-8.5-8.5V17.8A8.6 8.6 0 0129 9.2zm-8.1 8.3h4.8m-4.8 4.8h4.8m-4.8 4.9h4.8M20.9 32h4.8m6.6-14.5h4.8m-4.8 4.8h4.8m-4.8 4.9h4.8M32.3 32h4.8m10.7-14.1a2.3 2.3 0 013.1 2.1 3.7 3.7 0 01-3.1 3.4c-1.7.3-3.1-.6-3.1-2.2a3.7 3.7 0 013.1-3.3z"/><path class="cls-4" d="M50.8 10.5l7.3 2.6V8.6L50.8 6v14.7"/></g><path d="M47.8 17.9a2.3 2.3 0 013.1 2.1 3.7 3.7 0 01-3.1 3.4c-1.7.3-3.1-.6-3.1-2.2a3.7 3.7 0 013.1-3.3zm2.9-7.4l7.3 2.6V8.6L50.7 6" style="mix-blend-mode:darken" fill="#a1f4c0" id="flah"/></g></svg>
